X:3667
T:Cutting the Waves
M:C|
L:1/8
C:Liz Carroll
R:reel
D:Trian: Trian II
Z:Devin McCabe
K:D
A~d3 fdAd|BABc dAFd|A~d3 fdAF|B,DFB AFEF|
!A~d3 fdAd|BABc ~d3e|faed BAFE|1F2AF EDB,B:|2F2AF EDB,E||
!FBBA ~B2AB|dFFD EDB,D|FBBA ~B2dB|A3B ABFA|
!B3B ~B2AB|dFFD EDB,D|dBBA BedB|AFED B,~E3|
!FBBA ~B2AB|dFFD EDB,D|FBBA ~B2dB|A3B ABde|
!fBBA ~B2dB|AFFD EDB,D|dBBA BedB|AFED B,~E3||


